svg/label_percent.svg

<svg xmlns="http://www.w3.org/2000/svg" viewBox="0 0 24 24"><path d="M17.63 5.84C17.27 5.33 16.67 5 16 5H5c-1.1 0-2 .9-2 2v10a2 2 0 0 0 2 2h11c.67 0 1.27-.34 1.63-.85L22 12zM8.45 8.03c.78 0 1.42.64 1.42 1.42s-.64 1.42-1.42 1.42-1.42-.64-1.42-1.42.64-1.42 1.42-1.42m5.1 7.94c-.78 0-1.42-.64-1.42-1.42s.64-1.42 1.42-1.42 1.42.64 1.42 1.42-.64 1.42-1.42 1.42M8.2 16 7 14.8 13.8 8 15 9.2z"/></svg>

<?xml version="1.0" encoding="UTF-8"?><!DOCTYPE svg PUBLIC "-//W3C//DTD SVG 1.1//EN" "http://www.w3.org/Graphics/SVG/1.1/DTD/svg11.dtd"><svg xmlns="http://www.w3.org/2000/svg" xmlns:xlink="http://www.w3.org/1999/xlink" version="1.1" id="mdi-label-percent" width="24" height="24" viewBox="0 0 24 24"><path d="M17.63 5.84C17.27 5.33 16.67 5 16 5H5C3.9 5 3 5.9 3 7V17C3 18.11 3.9 19 5 19H16C16.67 19 17.27 18.66 17.63 18.15L22 12L17.63 5.84M8.45 8.03C9.23 8.03 9.87 8.67 9.87 9.45S9.23 10.87 8.45 10.87 7.03 10.23 7.03 9.45 7.67 8.03 8.45 8.03M13.55 15.97C12.77 15.97 12.13 15.33 12.13 14.55S12.77 13.13 13.55 13.13 14.97 13.77 14.97 14.55 14.33 15.97 13.55 15.97M8.2 16L7 14.8L13.8 8L15 9.2L8.2 16Z" /></svg>
